dist/svg/email-message-warning.svg

<!-- Generated by Trend Micro Style Portal -->
<svg version="1.1" xmlns="http://www.w3.org/2000/svg" width="16" height="16" viewBox="0 0 16 16">
  <title>email-message-warning</title>
  <path fill="rgb(34,34,34)" d="M8 0l-8 6.045v8.955c0 0.552 0.448 1 1 1h14c0.552-0 1-0.448 1-1v-8.955l-8-6.045zM15 7.545l-7 5.455-7-5.455v-0.882l7-5.464 7 5.464v0.882zM7 4h2v4h-2v-4zM7 9h2v2h-2v-2z"></path>
</svg>

<svg width="16" height="16" viewBox="0 0 16 16" fill="rgb(34, 34, 34)" xmlns="http://www.w3.org/2000/svg"><title>email-message-warning</title><path d="M8 0L0 6.045V15C0 15.552 0.448 16 1 16H15C15.552 16 16 15.552 16 15V6.045L8 0ZM15 7.545L8 13L1 7.545V6.663L8 1.199L15 6.663V7.545ZM7 4H9V8H7V4ZM7 9H9V11H7V9Z" fill="rgb(34, 34, 34)" fill-opacity="1.00"/></svg>
